X: 3660
T: Bill The Weaver's
R: slide
M: 12/8
K: Dmajor
|:fed B2d A2d F2B|A2B AFD E3 E2g|
fed B2d A2d F2B|A2F EFE D3 D2g:|
|:~f3 ~a3 baf a2a|~f3 a2f e3 e2g|
[1 ~f3 ~a3 baf a2a|~f3 a2f d3 d2g:|
[2 fga efg fed BdB|A2F EFE D3 D2g||

